img/logo-symbol-inverted.svg

<svg fill="none" height="30" viewBox="0 0 30 30" width="30" xmlns="http://www.w3.org/2000/svg"><path clip-rule="evenodd" d="m27.6562 0h-25.31245c-1.29442 0-2.34375 1.04933-2.34375 2.34375v25.31245c0 1.2945 1.04933 2.3438 2.34375 2.3438h25.31245c1.2945 0 2.3438-1.0493 2.3438-2.3438v-25.31245c0-1.29442-1.0493-2.34375-2.3438-2.34375zm-15.384 22.1361c1.248.688 2.64 1.064 4.176 1.128.256 0 1.016-.448 2.28-1.344s2.344-1.72 3.24-2.472l-.096-.144c-.816.288-1.56.432-2.232.432-1.776 0-3.264-.504-4.464-1.512s-2.08-2.232-2.64-3.672-.84-2.808-.84-4.104c.016-.94399.2-1.64799.552-2.11199s.784-.696 1.296-.696c.72 0 1.496.408 2.328 1.224.832.8 1.544 2.24799 2.136 4.34399l.144.048 3.936-3.86399c-.432-.816-1.192-1.504-2.28-2.064-1.088-.576-2.336-.864-3.744-.864-.8 0-1.816.256-3.048.768-1.216.496-2.312 1.368-3.28804 2.616-.976 1.23199-1.464 2.86399-1.464 4.89599 0 1.696.352 3.176 1.056 4.44.72004 1.264 1.70404 2.248 2.95204 2.952z" fill="#f9f9fa" fill-rule="evenodd"/></svg>

<svg width="30" height="30" viewBox="0 0 30 30" fill="none" xmlns="http://www.w3.org/2000/svg">
<path fill-rule="evenodd" clip-rule="evenodd" d="M27.6562 0H2.34375C1.04933 0 0 1.04933 0 2.34375V27.6562C0 28.9507 1.04933 30 2.34375 30H27.6562C28.9507 30 30 28.9507 30 27.6562V2.34375C30 1.04933 28.9507 0 27.6562 0ZM12.2722 22.1361C13.5202 22.8241 14.9122 23.2001 16.4482 23.2641C16.7042 23.2641 17.4642 22.8161 18.7282 21.9201C19.9922 21.0241 21.0722 20.2001 21.9682 19.4481L21.8722 19.3041C21.0562 19.5921 20.3122 19.7361 19.6402 19.7361C17.8642 19.7361 16.3762 19.2321 15.1762 18.2241C13.9762 17.2161 13.0962 15.9921 12.5362 14.5521C11.9762 13.1121 11.6962 11.7441 11.6962 10.4481C11.7122 9.50411 11.8962 8.80011 12.2482 8.33611C12.6002 7.87211 13.0322 7.64011 13.5442 7.64011C14.2642 7.64011 15.0402 8.04811 15.8722 8.86411C16.7042 9.66411 17.4162 11.1121 18.0082 13.2081L18.1522 13.2561L22.0882 9.39211C21.6562 8.57611 20.8962 7.88811 19.8082 7.32811C18.7202 6.75211 17.4722 6.46411 16.0642 6.46411C15.2642 6.46411 14.2482 6.72011 13.0162 7.23211C11.8002 7.72811 10.7042 8.60011 9.72816 9.84811C8.75216 11.0801 8.26416 12.7121 8.26416 14.7441C8.26416 16.4401 8.61616 17.9201 9.32016 19.1841C10.0402 20.4481 11.0242 21.4321 12.2722 22.1361Z" fill="#F9F9FA"/>
</svg>
